X:1
T: Wreck Between New Hope and Gethsemane
M:4/4
L:1/4
K:F
 c c| A C C/2 G3/2| F2 G/2 F3/2| D B, D F| C3 C/2C/2| F F F G| A A G F|\
 G4-| G3 c/2c/2| A C C G| F2 G F| D B, D F| C3 F/2G/2| A3/2 A/2 A F|\
 C3/2 C/2 E G| F4-| F3 z| D2 B3/2 A/2| B3 D| C F A3/2 ^G/2| A3 F/2F/2|\
 G3/2 G/2 G2| A3/2 A/2 =B G| c4-| c3 A/2B/2| c3/2 d/2 c A| G F3| D3/2 E/2 F D|\
 D C2 C| D3/2 E/2 F G| A G D E/2E/2| F4-| F2||
